packages/icons/src/tasRollback.svg

<svg  viewBox="0 0 33 33" fill="none" xmlns="http://www.w3.org/2000/svg">
<path d="M5.94336 14.5134V26.4731C5.94336 27.0253 6.39108 27.4731 6.94336 27.4731H19.2539M11.5925 8.57319H27.0552C27.6075 8.57319 28.0552 9.02091 28.0552 9.57319V19.0718M11.5925 8.57319L14.6638 5.55127M11.5925 8.57319L14.6638 11.5951" stroke="#0278D5" stroke-linecap="round" stroke-linejoin="round"/>
<path d="M29.069 31.4291H25.6593C25.5928 31.4296 25.527 31.4149 25.4669 31.3862C25.4068 31.3575 25.3541 31.3154 25.3128 31.2632L23.1477 28.5542C23.1052 28.5009 23.0755 28.4386 23.061 28.372C23.0465 28.3055 23.0474 28.2365 23.0639 28.1703L23.8874 24.8538C23.9033 24.7916 23.9323 24.7335 23.9725 24.6833C24.0126 24.6332 24.0631 24.5922 24.1203 24.5632L27.1723 23.0335C27.2337 23.0031 27.3012 22.9873 27.3698 22.9873C27.4383 22.9873 27.5059 23.0031 27.5673 23.0335L30.6583 24.565C30.7169 24.5935 30.7685 24.6346 30.8091 24.6856C30.8497 24.7365 30.8784 24.7959 30.8931 24.8594L31.6793 28.1759C31.6938 28.2405 31.6935 28.3075 31.6787 28.372C31.6639 28.4364 31.6348 28.4968 31.5936 28.5486L29.4137 31.2651C29.3722 31.3165 29.3196 31.3579 29.26 31.3863C29.2003 31.4146 29.1351 31.4293 29.069 31.4291ZM25.6593 30.9726H29.0615L31.2322 28.2728L30.4496 24.9694L27.3716 23.4453L24.3309 24.9694L23.5092 28.2747L25.6593 30.9726Z" fill="#238FCF"/>
<path d="M31.2887 23.954L31.6762 23.6354L27.5977 21.6157V22.1262L31.2887 23.954Z" fill="#1BBFD3"/>
<path d="M22.3432 28.6997L21.8457 28.8096L24.6908 32.3795L24.9144 31.9268L22.3432 28.6997Z" fill="#79BF43"/>
<path d="M27.1397 22.1282V21.6177L23.1152 23.6355L23.4916 23.9597L27.1397 22.1282Z" fill="#1BBFD3"/>
<path d="M23.2199 24.3284L22.8323 23.9949L21.7461 28.3622L22.2454 28.2523L23.2199 24.3284Z" fill="#1D4489"/>
<path d="M32.498 28.2541L32.9955 28.3641L31.9614 23.9949L31.5664 24.3191L32.498 28.2541Z" fill="#1D4489"/>
<path d="M32.396 28.6997L29.7969 31.9324L30.0186 32.3851L32.8935 28.8096L32.396 28.6997Z" fill="#79BF43"/>
<path d="M25.3251 32.1243L25.1016 32.5826H29.6049L29.3813 32.1243H25.3251Z" fill="#1BBFD3"/>
</svg>

<svg viewBox="0 0 33 33" fill="none" xmlns="http://www.w3.org/2000/svg"><path d="M5.943 14.513v11.96a1 1 0 0 0 1 1h12.31m-7.66-18.9h15.462a1 1 0 0 1 1 1v9.499M11.593 8.573l3.07-3.022m-3.07 3.022 3.07 3.022" stroke="#0278D5" stroke-linecap="round" stroke-linejoin="round"/><path d="M29.069 31.43h-3.41a.439.439 0 0 1-.346-.167l-2.165-2.709a.444.444 0 0 1-.084-.384l.823-3.316a.452.452 0 0 1 .233-.29l3.052-1.53a.445.445 0 0 1 .395 0l3.091 1.531a.437.437 0 0 1 .235.294l.786 3.317a.443.443 0 0 1-.085.373l-2.18 2.716a.442.442 0 0 1-.345.164Zm-3.41-.457h3.402l2.171-2.7-.782-3.304-3.078-1.524-3.041 1.524-.822 3.306 2.15 2.698Z" fill="#238FCF"/><path d="m31.289 23.954.387-.319-4.078-2.02v.511l3.69 1.828Z" fill="#1BBFD3"/><path d="m22.343 28.7-.497.11 2.845 3.57.223-.453-2.57-3.227Z" fill="#79BF43"/><path d="M27.14 22.128v-.51l-4.025 2.018.377.324 3.648-1.832Z" fill="#1BBFD3"/><path d="m23.22 24.328-.388-.333-1.086 4.367.5-.11.974-3.924ZM32.498 28.254l.498.11-1.035-4.37-.395.325.932 3.935Z" fill="#1D4489"/><path d="m32.396 28.7-2.6 3.232.223.453 2.875-3.575-.498-.11Z" fill="#79BF43"/><path d="m25.325 32.124-.223.459h4.503l-.224-.459h-4.056Z" fill="#1BBFD3"/></svg>
